X:1
T:043 - Palavras Preciosas
T:Letra: Fanny Jane Crosby (1820-1915)
T:Trad.: Joseph Jones (1848-1927)
T:Música: Ira David Sankey (1840-1908)
L:1/4
Q:1/4=115
M:4/4
K:Ab
V:1
(C/>D/) | "Ab"E A A3/2 B/ | "Eb7"A G G A | B3/2 =A/ B E | "Ab"c3 (A/>B/) | c e e3/2 e/ | "Db"e d A B | "Ab/Eb"c c "Eb7"c3/2 B/ | "Ab"A3 A | "Db"A d A3/ B/ | "Ab"c3 c | c c "Bb7"=d3/d/ | "Eb"e3 ("Eb7"c/>d/) | "Ab"e A d c | "Bbm"B "F7"c "Bbm"Hd (c/>B/) | "Ab/Eb"A A "Eb7"A G | "Ab"A3 |]
w: 1.~Pre_cio-sas as pa-la-vras de Je-sus, Su-pre-mo Rei: "A_mim a-que-le que vi-er, Eu não des-pre-za-rei, Eu não des-pre-za-rei, Eu não des-pre-za-rei; A_ mim a-que-le que vi-er, Eu_ não des-pre-za-rei."
w: 2.~Pre_cio-sas as pa-la-vras de Je-sus, Su-pre-mo Rei: "A_ por-ta sou, por mim en-trai; Des-can-so vos da-rei, Des-can-so vos da-rei, Des-can-so vos da-rei; A_ por-ta sou, por mim en-trai; Des_can-so vos da-rei."
w: 3.~Pre_cio-sas as pa-la-vras de Je-sus, Su-pre-mo Rei: "Oh,_ vin-de, vós, can-sa-dos, já; É sua-vea mi-nha lei, É sua-vea mi-nha lei, É sua-vea mi-nha lei; Oh,_ vin-de, vós, can-sa-dos, já; É_ sua-vea mi-nha lei."
w: 4.~Pre_cio-sas as pa-la-vras de Je-sus, Su-pre-mo Rei: "Por_ vós o mun-do já ven-ci; Por vós a vi-da dei, Por vós a vi-da dei, Por vós a vi-da dei; Por_ vós o mun-do já ven-ci; Por_ vós a vi-da dei."
W: 
W:
W: 1. Preciosas as palavras de Jesus, Supremo Rei:
W: "A mim aquele que vier, Eu não desprezarei, 
W: Eu não desprezarei, Eu não desprezarei;
W: A mim aquele que vier, Eu não desprezarei."
W: 
W: 2. Preciosas as palavras de Jesus, Supremo Rei:
W: "A porta sou, por mim entrai; Descanso vos darei, 
W: Descanso vos darei, Descanso vos darei;
W: A porta sou, por mim entrai; Descanso vos darei."
W:
W:
W: 
W: 3. Preciosas as palavras de Jesus, Supremo Rei:
W: "Oh, vinde, vós, cansados, já; É suave a minha lei,
W: É suave a minha lei, É suave a minha lei;
W: Oh, vinde, vós, cansados, já; É suave a minha lei."
W: 
W: 4. Preciosas as palavras de Jesus, Supremo Rei:
W: "Por vós o mundo já venci; Por vós a vida dei,
W: Por vós a vida dei, Por vós a vida dei;
W: Por vós o mundo já venci; Por vós a vida dei."
W: 
W:  





%wordsfont Times-Roman 13.0
%vocalfont Times-Roman 13.0
